local/share/icons/dracula-icons-main/22/places/folder-publicshare.svg

<?xml version="1.0" encoding="UTF-8"?>
<svg xmlns="http://www.w3.org/2000/svg" xmlns:xlink="http://www.w3.org/1999/xlink" width="22" height="22" viewBox="0 0 22 22">
<path fill-rule="nonzero" fill="rgb(100%, 100%, 100%)" fill-opacity="1" d="M 9 5 C 7.34375 5 6 6.34375 6 8 C 6 9.65625 7.34375 11 9 11 C 10.65625 11 12 9.65625 12 8 C 12 6.34375 10.65625 5 9 5 Z M 13.996094 6.945312 L 14 6.949219 C 13.613281 6.949219 13.246094 7.039062 12.914062 7.1875 C 12.96875 7.449219 13 7.71875 13 7.996094 C 13 9.101562 12.546875 10.101562 11.816406 10.828125 C 12.277344 11.527344 13.074219 11.996094 13.996094 11.996094 C 15.429688 11.996094 16.589844 10.867188 16.589844 9.472656 C 16.589844 8.078125 15.429688 6.945312 13.996094 6.945312 Z M 9 12.996094 C 3 13 3 17 3 17 L 3 18 L 15 18 L 15 17 C 15 17 15 12.988281 9 13 Z M 14 13 C 13.804688 13 13.628906 13.011719 13.449219 13.023438 C 14.144531 13.421875 14.675781 13.898438 15.050781 14.398438 C 15.992188 15.660156 16 17 16 17 L 19 17 L 19 16 C 19 16 19 13 14 13 Z M 14 13 "/>
</svg>

<svg width="22" height="22" version="1.1" viewBox="0 0 22 22" xmlns="http://www.w3.org/2000/svg">
 <defs>
  <style id="current-color-scheme" type="text/css">.ColorScheme-Text { color:#FFFFFF; } .ColorScheme-Highlight { color:#5294e2; }</style>
 </defs>
 <path class="ColorScheme-Text" fill="currentColor" d="m9 5c-1.6569 0-3 1.3432-3 3s1.3431 3 3 3 3-1.3432 3-3-1.3431-3-3-3zm4.9961 1.9453 0.003906 0.0039063c-0.38828 0-0.75329 0.089301-1.084 0.23828 0.0546 0.26205 0.08398 0.53309 0.08398 0.81055 0 1.1021-0.45421 2.1042-1.1836 2.8301 0.46 0.7 1.2597 1.1699 2.1797 1.1699 1.4327 0 2.5938-1.1303 2.5938-2.5254s-1.161-2.5273-2.5938-2.5273zm-4.9961 6.0508c-6.0002 0.0034-6 4.0039-6 4.0039v1h12v-1s0-4.01-6-4zm5 2e-3v0.001906c-0.1961 0-0.37171 0.01258-0.55273 0.02148 0.69756 0.39966 1.2291 0.87707 1.6035 1.377 0.94 1.26 0.94922 2.5996 0.94922 2.5996h3v-1s0-3-5-3z"/>
</svg>
